Obsidian-SemiLight/actions/16s/debug-step-instruction.svg

<svg viewBox="0 0 16 16" xmlns="http://www.w3.org/2000/svg"><path d="m2 2v12h12v-12h-3v3h2v8h-10v-8h2v-3h-2zm4.4296875 4c-1.066 0-1.5136719.3519062-1.5136719 1.2539062 0 0-.02425.5870938-.03125.7460938-.046.369-.175125.6777344-.578125.6777344h-.3046875v.6445312h.3046875c.589 0 .609375.6441714.609375 1.2011724-.005.173999.0135782.369515.0175782.478515.083.712.5380937 1 1.4960937 1v-.59375c-.45 0-.6059219-.11625-.6699219-.40625-.034-.116-.0367812-.514078-.0507812-.705078 0-.415-.1236563-1.0350156-.7226563-1.2910156.473-.203.6442656-.628.6972657-1 .024-.104.0174374-.2236875.0234374-.3046875 0-.866.0116563-1.1035155.7226563-1.1035157zm1.0703125 0v1h1v-1zm2.0800781 0v.5976562c.7109999 0 .7226559.2375157.7226559 1.1035157.006.081-.000562.2006875.023438.3046875.053.372.224263.797.697266 1-.599002.256-.722657.8760156-.722657 1.2910156-.014.191-.016781.589078-.050781.705078-.064.29-.219922.40625-.6699219.40625v.59375c.9579999 0 1.4130939-.288 1.4960939-1 .004-.109.022578-.304516.017578-.478515 0-.5570015.020375-1.2011724.609375-1.2011724h.304687v-.6445312h-.304687c-.403 0-.532125-.3087344-.578125-.6777344-.007-.159-.03125-.7460938-.03125-.7460938 0-.902-.447672-1.2539062-1.5136719-1.2539062zm-2.0800781 2v4h1v-4z" fill="#4d4d4d"/><path d="m10 2-2 3-2-3z" fill="#f67400"/></svg>

<svg xmlns="http://www.w3.org/2000/svg" viewBox="0 0 16 16">
  <defs id="defs3051">
    <style type="text/css" id="current-color-scheme">
      .ColorScheme-Text {
        color:#4d4d4d;
      }
      .ColorScheme-NeutralText {
        color:#f67400;
      }
      </style>
  </defs>
 <path style="fill:currentColor;fill-opacity:1;stroke:none" 
     d="M 2 2 L 2 14 L 14 14 L 14 2 L 11 2 L 11 5 L 13 5 L 13 13 L 3 13 L 3 5 L 5 5 L 5 2 L 3 2 L 2 2 z M 6.4296875 6 C 5.3636875 6 4.9160156 6.3519062 4.9160156 7.2539062 C 4.9160156 7.2539062 4.8917656 7.841 4.8847656 8 C 4.8387656 8.369 4.7096406 8.6777344 4.3066406 8.6777344 L 4.0019531 8.6777344 L 4.0019531 9.3222656 L 4.3066406 9.3222656 C 4.8956406 9.3222656 4.9160156 9.966437 4.9160156 10.523438 C 4.9110156 10.697437 4.9295938 10.892953 4.9335938 11.001953 C 5.0165938 11.713953 5.4716875 12.001953 6.4296875 12.001953 L 6.4296875 11.408203 C 5.9796875 11.408203 5.8237656 11.291953 5.7597656 11.001953 C 5.7257656 10.885953 5.7229844 10.487875 5.7089844 10.296875 C 5.7089844 9.881875 5.5853281 9.2618594 4.9863281 9.0058594 C 5.4593281 8.8028594 5.6305937 8.3778594 5.6835938 8.0058594 C 5.7075938 7.9018594 5.7010312 7.7821719 5.7070312 7.7011719 C 5.7070312 6.8351719 5.7186875 6.5976564 6.4296875 6.5976562 L 6.4296875 6 z M 7.5 6 L 7.5 7 L 8.5 7 L 8.5 6 L 7.5 6 z M 9.5800781 6 L 9.5800781 6.5976562 C 10.291078 6.5976562 10.302734 6.8351719 10.302734 7.7011719 C 10.308734 7.7821719 10.302172 7.9018594 10.326172 8.0058594 C 10.379172 8.3778594 10.550435 8.8028594 11.023438 9.0058594 C 10.424436 9.2618594 10.300781 9.881875 10.300781 10.296875 C 10.286781 10.487875 10.284 10.885953 10.25 11.001953 C 10.186 11.291953 10.030078 11.408203 9.5800781 11.408203 L 9.5800781 12.001953 C 10.538078 12.001953 10.993172 11.713953 11.076172 11.001953 C 11.080172 10.892953 11.09875 10.697437 11.09375 10.523438 C 11.09375 9.9664365 11.114125 9.3222656 11.703125 9.3222656 L 12.007812 9.3222656 L 12.007812 8.6777344 L 11.703125 8.6777344 C 11.300125 8.6777344 11.171 8.369 11.125 8 C 11.118 7.841 11.09375 7.2539062 11.09375 7.2539062 C 11.09375 6.3519062 10.646078 6 9.5800781 6 z M 7.5 8 L 7.5 12 L 8.5 12 L 8.5 8 L 7.5 8 z "
     class="ColorScheme-Text"
     />
  <path
       style="fill:currentColor;fill-opacity:1;stroke:none" 
     class="ColorScheme-NeutralText"
   d="M 10,2 8,5 6,2 Z" />
</svg>
